X:164
T: Zanmen de jiu xing gong chan dang
N: C0273
O: China,Heilongjiang
S: III, 9]
N: Titel und Text neu, Melodie alt und populaer.
N: Glissandi.Der letzte Takt der 2. Strophe ist eine Oktave hoeher notiert
R: Xiaodiao, Dongbeifeng diao, Wuge, Yangge, Dongbei dayangge. Xin minge]
M: 2/4
L: 1/16
K: G
z2A2A2E2 | A2A6 |
d3BA4
d3BA4
A2ddB2A2 | G2A2E4 |
A2ddB2A2 | G2A2E4 |
z2d2d2d2 | d4B3f | e8 |
B2eed2B2 | A2BAG2E2 | d6B2 | e8 |
A2AAA2d2 | A4G2E2 | A2A2A2A2 | d4E2E2 | D6
E2 | G4B4 | E2E2D4 | B2B2A2B2 | D8

@@@ Tune index: 6165
